dist/img/bgpatern.svg

<svg width="442" height="511" viewBox="0 0 442 511" fill="none" xmlns="http://www.w3.org/2000/svg">
<path d="M203.421 442.412L147.78 462.399M203.421 442.412L203.421 1.49998M203.421 442.412L267.287 451.709M203.421 442.412L440.5 363.712M440.5 54.3965L384.214 41.8381M440.5 54.3965L440.5 136.644M440.5 54.3965L5.8944 186.315M203.421 1.49998L140.199 18.0618M203.421 1.49998L267.287 15.7496M92.1385 482.387L16.6602 509.5L13.9204 427.252M92.1385 482.387L76.9783 34.6237M92.1385 482.387L147.78 462.399M76.9783 34.6237L1.49998 54.3965L3.69719 120.356M76.9783 34.6237L140.199 18.0618M140.199 18.0618L147.78 462.399M267.287 15.7496L267.287 451.709M267.287 15.7496L327.928 29.2797M267.287 451.709L327.928 460.536M327.928 460.536L327.928 29.2797M327.928 460.536L384.214 468.73M327.928 460.536L440.5 420.318M327.928 29.2797L384.214 41.8381M327.928 29.2797L3.69719 120.356M384.214 41.8381L384.214 468.73M384.214 468.73L440.5 476.923L440.5 420.318M13.9204 427.252L440.5 286.948M13.9204 427.252L11.6211 358.229M440.5 286.948L440.5 209.861M440.5 286.948L440.5 363.712M11.6211 358.229L440.5 209.861M11.6211 358.229L8.8061 273.723M440.5 209.861L440.5 136.644M8.8061 273.723L440.5 136.644M8.8061 273.723L5.8944 186.315M5.8944 186.315L3.69719 120.356M440.5 363.712L440.5 420.318" stroke="url(#paint0_linear_4_4637)" stroke-width="2"/>
<defs>
<linearGradient id="paint0_linear_4_4637" x1="419" y1="84" x2="261.5" y2="286" gradientUnits="userSpaceOnUse">
<stop stop-color="#CFDEEC"/>
<stop offset="1" stop-color="#B0C2D5" stop-opacity="0"/>
</linearGradient>
</defs>
</svg>

<svg width="442" height="511" fill="none" xmlns="http://www.w3.org/2000/svg"><path d="M203.421 442.412l-55.641 19.987m55.641-19.987V1.5m0 440.912l63.866 9.297m-63.866-9.297l237.079-78.7m0-309.315l-56.286-12.559M440.5 54.397v82.247m0-82.248L5.894 186.316M203.421 1.5l-63.222 16.562M203.421 1.5l63.866 14.25M92.139 482.387L16.66 509.5l-2.74-82.248m78.218 55.135L76.978 34.624m15.16 447.763l55.642-19.988M76.978 34.624L1.5 54.397l2.197 65.959m73.281-85.732L140.2 18.062m0 0l7.581 444.337m119.507-446.65v435.96m0-435.96l60.641 13.53m-60.641 422.43l60.641 8.827m0 0V29.28m0 431.256l56.286 8.194m-56.286-8.194L440.5 420.318M327.928 29.28l56.286 12.558M327.928 29.28L3.698 120.356m380.516-78.518V468.73m0 0l56.286 8.193v-56.605m-426.58 6.934L440.5 286.948M13.92 427.252l-2.299-69.023M440.5 286.948v-77.087m0 77.087v76.764m-428.879-5.483L440.5 209.861M11.621 358.229l-2.815-84.506M440.5 209.861v-73.217M8.806 273.723L440.5 136.644M8.806 273.723l-2.912-87.408m0 0l-2.197-65.959M440.5 363.712v56.606" stroke="url(#paint0_linear_4_4637)" stroke-width="2"/><defs><linearGradient id="paint0_linear_4_4637" x1="419" y1="84" x2="261.5" y2="286" gradientUnits="userSpaceOnUse"><stop stop-color="#CFDEEC"/><stop offset="1" stop-color="#B0C2D5" stop-opacity="0"/></linearGradient></defs></svg>
